src/assets/Group.svg

<svg fill="none" height="100" viewBox="0 0 100 100" width="100" xmlns="http://www.w3.org/2000/svg"><g fill="#000"><path d="m85.3641 14.6359c-9.4585-9.44014-22.0088-14.6359-35.3641-14.6359s-25.9056 5.19576-35.3641 14.6359c-9.44014 9.4585-14.6359 22.0088-14.6359 35.3641s5.19576 25.9056 14.6359 35.3641c9.4402 9.4402 22.0088 14.6359 35.3641 14.6359s25.9056-5.1957 35.3641-14.6359c9.4402-9.4402 14.6359-22.0088 14.6359-35.3641s-5.1957-25.9056-14.6359-35.3641zm-35.3641 81.5222c-25.4482 0-46.15807-20.7099-46.15807-46.1581s20.70987-46.15807 46.15807-46.15807 46.1581 20.70987 46.1581 46.15807-20.7099 46.1581-46.1581 46.1581z"/><path d="m19.96 29.5645v12.8613h3.6955v6.5679h2.7077v11.727h-2.7077v6.8789h-3.6955v11.9283h60.4647v-11.9283h-3.6956v-6.8789h-2.8174v-11.727h2.7991v-6.5679h3.6956v-12.8613l-30.2232-18.5328zm3.6955 9.5682h-.4025v-5.6897h15.8251c.4391 2.1954 1.5368 4.1713 3.0736 5.6897h-.2012-1.8295zm39.2975 9.861v11.727h-2.7076v6.8789h-1.8295v-6.8789h-2.7992v-11.727h2.7992v-6.5679h1.8295v6.5679zm-5.1226-17.1972c-.0366.5671-.1463 1.116-.2927 1.6465-.9513 3.2565-3.97 5.6348-7.5375 5.6348s-6.5679-2.3783-7.5375-5.6348c-.1646-.5305-.2561-1.0794-.2927-1.6465-.0183-.183-.0183-.3842-.0183-.5672 0-.3659.0183-.7318.0732-1.0794.5305-3.8236 3.8053-6.7874 7.7753-6.7874s7.2448 2.9638 7.7753 6.7874c.0549.3476.0732.7135.0732 1.0794 0 .183 0 .3842-.0183.5672zm-2.7076 32.2173v3.2748h-9.8793v-3.2748zm-7.1716-3.5858v-11.416h4.3725v11.416zm-2.7077-14.7274v-3.2748h9.8793v3.2748zm-.5854 3.2931v11.727h-2.7076v6.8789h-1.8295v-6.8789h-2.7992v-11.727h2.7992v-6.5679h1.8295v6.5679zm-7.8302 15.0201v3.2748h-9.8793v-3.2748zm-7.1716-3.5858v-11.416h4.3725v11.416zm-2.7077-14.7274v-3.2748h9.8793v3.2748zm50.1647 25.1921v5.3421h-53.8603v-5.3421zm-13.5749-25.1921v-3.2748h9.8793v3.2748zm7.0802 3.2931v11.416h-4.3725v-11.416zm2.7991 15.0201v3.2748h-9.8793v-3.2748zm3.6956-24.8811h-.4025-16.4654-1.8295-.5672c1.5368-1.5184 2.6162-3.4943 3.0736-5.6897h16.191zm-16.0081-8.9828c-.5488-5.6531-5.3055-10.0805-11.105-10.0805-5.7812 0-10.5562 4.4274-11.105 10.0805h-13.6297l24.8994-15.2579 24.8993 15.2579z"/></g></svg>

<svg width="100" height="100" viewBox="0 0 100 100" fill="none" xmlns="http://www.w3.org/2000/svg">
<path d="M85.3641 14.6359C75.9056 5.19576 63.3553 0 50 0C36.6447 0 24.0944 5.19576 14.6359 14.6359C5.19576 24.0944 0 36.6447 0 50C0 63.3553 5.19576 75.9056 14.6359 85.3641C24.0761 94.8043 36.6447 100 50 100C63.3553 100 75.9056 94.8043 85.3641 85.3641C94.8043 75.9239 100 63.3553 100 50C100 36.6447 94.8043 24.0944 85.3641 14.6359ZM50 96.1581C24.5518 96.1581 3.84193 75.4482 3.84193 50C3.84193 24.5518 24.5518 3.84193 50 3.84193C75.4482 3.84193 96.1581 24.5518 96.1581 50C96.1581 75.4482 75.4482 96.1581 50 96.1581Z" fill="black"/>
<path d="M19.96 29.5645V42.4258H23.6555V48.9937H26.3632V60.7207H23.6555V67.5996H19.96V79.5279H80.4247V67.5996H76.7291V60.7207H73.9117V48.9937H76.7108V42.4258H80.4064V29.5645L50.1832 11.0317L19.96 29.5645ZM23.6555 39.1327H23.253V33.443H39.0781C39.5172 35.6384 40.6149 37.6143 42.1517 39.1327H41.9505H40.121H23.6555ZM62.953 48.9937V60.7207H60.2454V67.5996H58.4159V60.7207H55.6167V48.9937H58.4159V42.4258H60.2454V48.9937H62.953ZM57.8304 31.7965C57.7938 32.3636 57.6841 32.9125 57.5377 33.443C56.5864 36.6995 53.5677 39.0778 50.0002 39.0778C46.4327 39.0778 43.4323 36.6995 42.4627 33.443C42.2981 32.9125 42.2066 32.3636 42.17 31.7965C42.1517 31.6135 42.1517 31.4123 42.1517 31.2293C42.1517 30.8634 42.17 30.4975 42.2249 30.1499C42.7554 26.3263 46.0302 23.3625 50.0002 23.3625C53.9702 23.3625 57.245 26.3263 57.7755 30.1499C57.8304 30.4975 57.8487 30.8634 57.8487 31.2293C57.8487 31.4123 57.8487 31.6135 57.8304 31.7965ZM55.1228 64.0138V67.2886H45.2435V64.0138H55.1228ZM47.9512 60.428V49.012H52.3237V60.428H47.9512ZM45.2435 45.7006V42.4258H55.1228V45.7006H45.2435ZM44.6581 48.9937V60.7207H41.9505V67.5996H40.121V60.7207H37.3218V48.9937H40.121V42.4258H41.9505V48.9937H44.6581ZM36.8279 64.0138V67.2886H26.9486V64.0138H36.8279ZM29.6563 60.428V49.012H34.0288V60.428H29.6563ZM26.9486 45.7006V42.4258H36.8279V45.7006H26.9486ZM77.1133 70.8927V76.2348H23.253V70.8927H77.1133ZM63.5384 45.7006V42.4258H73.4177V45.7006H63.5384ZM70.6186 48.9937V60.4097H66.2461V48.9937H70.6186ZM73.4177 64.0138V67.2886H63.5384V64.0138H73.4177ZM77.1133 39.1327H76.7108H60.2454H58.4159H57.8487C59.3855 37.6143 60.4649 35.6384 60.9223 33.443H77.1133V39.1327ZM61.1052 30.1499C60.5564 24.4968 55.7997 20.0694 50.0002 20.0694C44.219 20.0694 39.444 24.4968 38.8952 30.1499H25.2655L50.1649 14.892L75.0642 30.1499H61.1052Z" fill="black"/>
</svg>
